!!!OTL: 144. Die klagende Nachtigall.
!!!ODT: 1810
!!!ARE: Europa, Mitteleuropa, Deutschland, Priegnitz
!!!SCT: B0144
!!!TXL: @@DE
!!!YEM: Copyright 1995, estate of Helmut Schaffrath.
**kern	**text
*ICvox	*
*Ivox	*
*M2/4	*
*clefG2	*
*k[f#]	*
*G:	*
!LO:TX:a:t=Empfindſam.	!
{8dd	Ach
=1	=1
8gg	Schwe-
(16ff#L	-ſter,
16eeJ)	.
8dd	die
8b	du
=2	=2
8ddL	ſi-
8ccJ	.
8a}	-cher
{8cc	dich
=3	=3
(16ccqq	.
8b)	auf
16ccL	den
16aJ	.
16aL	Ae-
16gJ	.
16gL	-ſten
16f#J	.
=4	=4
(8f#qq	.
4g)	wiegſt,
8r}	.
{8dd	Und
=5	=5
8gg	buh-
(16ff#	-lend
16ee)	.
8dd	mit
8b	dem
=6	=6
8ddL	Gat-
8ccJ	.
8a}	-ten,
{8cc	auf
=7	=7
(16ccqq	.
8b)	al-
16ccL	-le
16aJ	.
16aL	Bäumchen
16gJ	.
16gL	.
16f#J	.
=8	=8
(8f#qq	.
4g)	fliegſt;
8r}	.
{8dd	hör
=9	=9
8f#	mei-
8a	-ne
8g	Leid-
8b/	-ge-
=10	=10
8.aL	-ſchich-
32cc	.
32bJ}	.
{8b	-te
8dd	und
=11	=11
8gg	flie-
16ff#L	-he
16eeJ	.
16ff#q	.
16eeL	weit
16ddJ	.
16eeq	.
16ddL	von
16cc#J	.
=12	=12
(8cc#qq	.
4dd)	hier,
8r}	.
{8dd	nimm
=13	=13
8gg	dei-
16ff#L	-nen
16eeJ	.
8dd	Mann
8b	und
=14	=14
8ddL	Kin-
8ccJ	.
8a}	-der
{8cc	und
=15	=15
8b	was
16ccL	du
16aJ	.
16aL	liebſt
16gJ	.
16gL	mit
16f#J	.
=16	=16
(8f#qq	.
4g)	dir!
8r}	.
==	==
!!!AGN: Ballade, Romanze
!!!GTL: Balladen und Romanzen
!!!ONB: ESAC (Essen Associative Code) Database: BOEHME
!!!AMT: simple duple
!!!AIN: vox
!!!EED: Helmut Schaffrath
!!!EEV: 1.0
!!!GTL: Balladen und Romanzen
!!Handſchriftl. Liederb. eines Pfarrers aus der Priegnitʒ. 1810.
!!@@COMMENT:"Gedicht von Joh. Paul Sattler, geb. ʒu Nürnberg 1. Jan. 1747, 4 daſelbſt 14. Okt. 1804
!!als Gymnaſial-Profeſſor. Hoffmann fand es ʒuerſt gedruckt in: "Das Wochenblatt ohne Titel".
!!3. Buch. Anſpach, 1770, S. 42. [...]
!!Text bier nach einem fl. Bl. (Berlin, Ʒürngibl um 1810, daſelbſt als Nr. 5). Jn "Lieder
!!der Weisheit und Tugend". Berlin, 1786 als "Trauerlied einer Grasmücke". [...]"
!!@@END:
!!!Text: Joh. Paul Sattler
!!!URL-scan: https://archive.org/details/BoehmeVtLieder1895/page/n145/mode/2up
!!!ENC: Anna Maria Matuszewska
!!!EEV: 2024/19/06
*-	*-
